!!!COM: Marotta, Erasmo
!!!CDT:
!!!PTL: Aminta musicale. Il primo libro de madrigali a cinque voci
!!!PPP: Venice
!!!PPR: Angelo Gardano
!!!PDT: 1600
!!!PUB-format:
!!!RISM: M 714
!!!OTL:	Vorrò veder ciò che Tirsi avrà fatto
!!!act: II
!!!scene: 3
!!!verse: 1034
!!!AGN: 
!!!SCT: Tam2031034b
!!!SCA: Tam2031034b
!!!original-voices: 5
!!!extant-voices: 3
!!!complete: N
!!!final: A
**kern	**text	**kern	**text	**kern	**text
*part3	*part3	*part2	*part2	*part1	*part1
*staff3	*staff3	*staff2	*staff2	*staff1	*staff1
*I"Basso	*	*I"Quinto	*	*I"Canto	*
*I'B	*	*I'V	*	*I'C	*
*oclefF4	*	*oclefC4	*	*oclefC1	*
*clefF4	*	*clefGv2	*	*clefG2	*
*k[]	*	*k[]	*	*k[]	*
*omet(C)	*	*omet(C)	*	*omet(C)	*
*M4/2	*	*M4/2	*	*M4/2	*
=1	=1	=1	=1	=1	=1
1r	.	2r	.	0r	.
.	.	2e	Vor-	.	.
2A	Vor-	4e	-rò	.	.
.	.	4d	ve-	.	.
4A	-rò	[2c	-der	.	.
4G	ve-	.	.	.	.
=2	=2	=2	=2	=2	=2
1F	-der	2c]	.	0r	.
.	.	4A	ciò	.	.
.	.	4B	che	.	.
4E	ciò	2c	Tir-	.	.
4F	che	.	.	.	.
2G	Tir-	[2B	-si av-	.	.
=3	=3	=3	=3	=3	=3
2E	-si av-	4B]	.	0r	.
.	.	4A	-rà	.	.
2E	-rà	2.A	fat-	.	.
1E	fat-	.	.	.	.
.	.	8G#XL	.	.	.
.	.	8F#XJ	.	.	.
.	.	2G#X	.	.	.
=4	=4	=4	=4	=4	=4
2AA	-to,	2A	-to,	1r	.
1A	E,	4r	.	.	.
.	.	4e	E,	.	.
.	.	4e	s'av-	2r	.
.	.	4e	-rà	.	.
4F	s'av-	[2f	fat-	4r	.
4F	-rà	.	.	4f	E,
=5	=5	=5	=5	=5	=5
2F	fat-	2f]	.	4a	s'av-
.	.	.	.	4b	-rà
2E	-to	2c	-to	2.cc	fat-
1D	nul-	4.d	nul-	.	.
.	.	.	.	4cc	-to
.	.	8e	.	.	.
.	.	4f	.	2b	nul-
.	.	4d	.	.	.
=6	=6	=6	=6	=6	=6
1C	-la,	2e	.	1cc	-la,
.	.	2c	-la,	.	.
2.G	Pri-	4d	Pri-	2.b	Pri-
.	.	8d	-ma	.	.
.	.	8d	ch'io	.	.
.	.	4.e	va-	.	.
8G	-ma	.	.	8b	-ma
8G	ch'io	8d	.	8b	ch'io
=7	=7	=7	=7	=7	=7
4.A	va-	8cL	.	4.cc	va-
.	.	8BJ	.	.	.
.	.	2A	.	.	.
8G	.	.	.	8b	.
8FL	.	.	.	8aL	.
8EJ	.	.	.	8gJ	.
2D	.	4A	-da in	2f	.
.	.	8AL	nul-	.	.
.	.	8B	.	.	.
4AA	-da in	8c	.	4a	-da in
.	.	8AJ	.	.	.
2E	nul-	2B	.	2g#X	nul-
=8	=8	=8	=8	=8	=8
1AA	-la	2A	-la	2a	-la
.	.	4r	.	4r	.
.	.	4e	Uc-	4cc#X	Uc-
1r	.	2.f	-ci-	2.dd	-ci-
.	.	4e	-der	4ccnXi	-der
=9	=9	=9	=9	=9	=9
1r	.	4d	vo'	4b	vo'
.	.	4c	me	4a	me
.	.	2B	stes-	2g#X	stes-
2r	.	1B	-so	2g#X	-so,
2E	Uc-	.	.	4r	.
.	.	.	.	4ee	<Uc-
=10	=10	=10	=10	=10	=10
2.A	-ci-	0r	.	2.ee	-ci-
4E	-der	.	.	4ee	-der
4G	vo'	.	.	4dd	vo'
4A	me	.	.	4cc	me
2E	stes-	.	.	2b	stes-
=11	=11	=11	=11	=11	=11
2.E	-so	4r	.	2.b	-so>
.	.	4B	in-	.	.
.	.	4B	-an-	.	.
4E	in-	4B	-zi a	4b	in-
4E	-an-	4.e	gli oc-	4b	-an-
4E	-zi a	.	.	4b	-zi a
.	.	8d	.	.	.
2A	gli oc-	8cL	.	[2cc	gli oc-
.	.	8d	.	.	.
.	.	8e	.	.	.
.	.	8cJ	.	.	.
=12	=12	=12	=12	=12	=12
1G	-chi	8dL	.	4cc]	.
.	.	8c	.	.	.
.	.	8d	.	8bL	.
.	.	8eJ	.	8aJ	.
.	.	2d	.	2b	.
1C	De	2c	-chi	2cc	-chi
.	.	4r	.	[2cc	De
.	.	[4e	De	.	.
=13	=13	=13	=13	=13	=13
2D	la	4e]	.	4cc]	.
.	.	2d	la	2b	la
4E	cru-	.	.	.	.
2F	-del	4c	cru-	4a	cru-
.	.	4.d	-del	8b	-del
.	.	.	.	8a	fan-
4D	fan-	.	.	2a	-ciul-
.	.	8c	fan-	.	.
2E	-ciul-	2B	-ciul-	.	.
.	.	.	.	4g#X	.
=14	=14	=14	=14	=14	=14
1AA	-la.	2A	-la,	1a	-la.
.	.	2A	<De	.	.
1r	.	2D	la	1r	.
.	.	4E	cru-	.	.
.	.	[4F	-del	.	.
=15	=15	=15	=15	=15	=15
1r	.	4F]	.	1r	.
.	.	4D	fan-	.	.
.	.	2E	-ciul-	.	.
2AA	A	2E	-la.>	2r	.
4AA	lei,	2c	A	2a	A
4AA	cui	.	.	.	.
=16	=16	=16	=16	=16	=16
4AA	tan-	4c	lei,	4a	lei,
4AA	-to	4c	cui	4a	cui
2A	pia-	4c	tan-	4a	tan-
.	.	4c	-to	4a	-to
1A	-ce	1e	pia-	2cc	pia-
.	.	.	.	4cc	-ce,
.	.	.	.	4cc	cui
=17	=17	=17	=17	=17	=17
1r	.	1e	-ce	4cc	tan-
.	.	.	.	4cc	-to
.	.	.	.	2ee	pia-
2r	.	2r	.	2ee	-ce
2C	La	[2e	La	[2cc	La
=18	=18	=18	=18	=18	=18
1D	pia-	2e]	.	2cc]	.
.	.	1d	pia-	1b	pia-
2E	-ga	.	.	.	.
[2F	del	4c	-ga,	2a	-ga
.	.	4c	La	.	.
=19	=19	=19	=19	=19	=19
2F]	.	2.d	pia-	4b	del
.	.	.	.	4a	mio
2D	mio	.	.	2.a	co-
.	.	4c	-ga	.	.
1E	co-	4B	del	.	.
.	.	4A	mio	8g#XL	.
.	.	.	.	8f#XJ	.
.	.	2B	co-	2g#X	.
=20	=20	=20	=20	=20	=20
[0AA	-re,	1A	-re,	1a	-re,
.	.	2r	.	4a	Col-
.	.	.	.	8a	-po
.	.	.	.	8a	de'
.	.	4A	Col-	4e	suoi
.	.	8A	-po	4a	be-
.	.	8A	de	.	.
=21	=21	=21	=21	=21	=21
1AA]	.	4E	suoi	1cc	-gli oc-
.	.	4A	be-	.	.
.	.	2c	-gli oc-	.	.
2r	.	2c	-chi,	2cc	-chi,
4A	Col-	2r	.	4cc	Col-
8A	-po	.	.	[8cc	-po
8A	de	.	.	8cc]	de'
=22	=22	=22	=22	=22	=22
4E	suoi	4.e	Al-	4b	suoi
4G	be-	.	.	4b	be-
.	.	8d	-tre-	.	.
2A	-gli oc-	4c	-tan-	2a	-gli oc-
.	.	8B	-to	.	.
.	.	8A	pia-	.	.
1E	-chi,	2B	-cer	2g#X	-chi,
.	.	4r	.	2r	.
.	.	4G#X	dev-	.	.
=23	=23	=23	=23	=23	=23
4.E	Al-	4G#X	-rà	1r	.
.	.	4G#X	per	.	.
8D	-tre-	.	.	.	.
4C	-tan-	2A	cer-	.	.
8BB	-to	.	.	.	.
8AA	pia-	.	.	.	.
4E	-cer	1G#X	-to	4.ee	Al-
4E	dev-	.	.	.	.
.	.	.	.	8dd	-tre-
4E	-rà	.	.	4cc	-tan-
4F#X	per	.	.	8b	-to
.	.	.	.	8a	pia-
=24	=24	=24	=24	=24	=24
2G#X	cer-	2r	.	4b	-cer
.	.	.	.	4e	dev-
2A	-to	2e	La	4e	-rà
.	.	.	.	4f#X	per
2E	La	4e	pia-	2g#X	cer-
.	.	4B	-ga	.	.
4.A	pia-	4c	del	2a	-to
.	.	4c	mio	.	.
8A	-ga	.	.	.	.
=25	=25	=25	=25	=25	=25
4E	del	2B	pet-	2r	.
4E	mio	.	.	.	.
2AA	pet-	2A	-to,	4r	.
.	.	.	.	4ee	La
2E	-to,	2r	.	4ee	pia-
.	.	.	.	4b	-ga
2r	.	4A	<La	4cc	del
.	.	[4A	pia-	4cc	mio
=26	=26	=26	=26	=26	=26
2r	.	4A]	.	2b	pet-
.	.	4G#X	-ga	.	.
4A	La	4.A	del	2a	-to,
2A	pia-	.	.	.	.
.	.	8A	mio	.	.
.	.	2E	pet-	4r	.
4G#X	-ga	.	.	4ee	<La
4A	del	2e	-to,>	4cc	pia-
4E	mio	.	.	4ee	-ga
=27	=27	=27	=27	=27	=27
1G	pet-	1r	.	4dd	del
.	.	.	.	4cc	mio
.	.	.	.	4cc	pet-
.	.	.	.	4b	.
1C	-to,	4r	.	1cc	-to,>
.	.	4.c	Col-	.	.
.	.	8B	-po	.	.
.	.	4A	de	.	.
=28	=28	=28	=28	=28	=28
0r	.	4G	la	1r	.
.	.	4c	mia	.	.
.	.	4B	ma-	.	.
.	.	4c	-no,	.	.
.	.	4C	<Col-	4g	Col-
.	.	8C	-po	8g	-po
.	.	8D	de	8f	de
.	.	4E	la	4e	la
.	.	4C	mia	4e	mia
=29	=29	=29	=29	=29	=29
2r	.	4G	ma-	4d	ma-
.	.	4C	-no,>	4c	-no,
4C	Col-	2r	.	2r	.
8C	-po	.	.	.	.
8D	de	.	.	.	.
4E	la	1r	.	4g	<Col-
4C	mia	.	.	8g	-po
.	.	.	.	8g	de
4G	ma-	.	.	4g	la
4C	-no,	.	.	4g	mia
=30	=30	=30	=30	=30	=30
4AA	<Col-	4e	Col-	2cc	ma-
8AA	-po	8e	-po	.	.
8BB	de	8d	de	.	.
4C	la	4c	la	4cc	-no,>
4AA	mia	4c	mia	4.ee	Col-
[1E	ma-	2e	ma-	.	.
.	.	.	.	8ee	-po
.	.	.	.	4dd	de
.	.	4e	-no,	[2cc	la
.	.	[4e	<Col-	.	.
=31	=31	=31	=31	=31	=31
0E]	.	8e]	.	4cc]	.
.	.	8e	-po	.	.
.	.	4d	de	2b	mia
.	.	4c	la	.	.
.	.	4c	mia	2a	ma-
.	.	1B	ma-	.	.
.	.	.	.	8g#XL	.
.	.	.	.	8f#XJ	.
.	.	.	.	2g#X	.
=32	=32	=32	=32	=32	=32
0AAl	-no.>	0Al	-no.>	0al	-no.
==	==	==	==	==	==
*-	*-	*-	*-	*-	*-
!!!system-decoration: [*]
!!!RDF**kern: i = editorial accidental
!!!RDF**kern: l = terminal long
!!!ENC: Emiliano Ricciardi
!!!END: 2018/05/21
!!!EED: Coluzzi, Seth
!!!EEV: 2018/07/13
!!!YEC: Copyright 2018 Emiliano Ricciardi, All Rights Reserved
!!!ONB: Translated from MusicXML on 2018/07/13 and edited by Craig Stuart Sapp
!!@@BEGIN:	VERSEDATA
!!@CATALOGNUM:	Tam2031034
!!@LAST_MODIFIED: 2020/07/12
!!@ACT:     II
!!@SCENE:   3
!!@VERSE:   1034
!!@TITLE:   Vorrò veder ciò che Tirsi avrà fatto
!!@MANUSRC:	A-Am, A-Au, A-Br, A-CM, A-F, A-Ub
!!@PRINTSRC:	A-1580D, A-1580M, A-1581B, A-1581B<sub>bis</sub>, A-1581M, A-1581M<sub>bis</sub>, A-1581O, A-1581V, A-1582B, A-1583M, A-1583V, A-1584A, A-1585C, A-1585V, A-1585V<sub>bis</sub>, A-1588B, A-1589M, A-1589V, A-1590Mb, A-1590Mv, A-1591M, A-1591W, A-1592B, A-1596B, A-1596M, A-1599Bf, A-1599Bp, A-1600R, A-1601Bf, A-1601Bp, A-1602B, A-1603Bf, A-1603Bv, A-1603Z, A-1605R, A-1606Z, A-1608D, A-1608DP, A-1609Bf, A-1609Bv, A-1609Z, A-1611D, A-1614GT, A-1617D, A-1618B, A-1619D, A-1619I, A-1620V, A-1622D, A-1623A, A-1624M, A-1624S, A-1624T, A-1625U, A-1628U, A-1632D, A-1634R
!!@@BEGIN:	VERSES
!!@ABOUTIT:	  AMINTA
!!@ABOUTEN:	
!!@EDITOR:	Solerti, Angelo
!!@EDITION_TITLE: Opere minori in versi di Torquato Tasso. Edizione critica sugli autografi e sulle antiche stampe.
!!@EDITION_LOC:	Bologna
!!@EDITION_PUB:	Zanichelli
!!@EDITION_DATE:  1895
!!@EDITION_VOL:	3
!!@EDITION_PAGE:
!!@TRANSLATOR:	Emiliano Ricciardi and Amyrose McCue Gill
!!@VERSE:	
!!	Vorrò veder ciò che Tirsi avrà fatto:
!!	E, s'havrà fatto nulla,
!!	Prima ch'io vada in nulla
!!	Uccider vo' me stesso inanzi a gli occhi
!!	De la crudel fanciulla.
!!	A lei, cui tanto spiace
!!	La piaga del mio core,
!!	Colpo de' suoi begli occhi,
!!	Altretanto piacer devria per certo
!!	La piaga del mio petto,
!!	Colpo, de la mia mano.
!!@TVERSE:
!!	I will want to see what Thrysis will have done:
!!	And, if he will have done naught,
!!	Before I become naught
!!	I want to kill myself before the eyes
!!	Of the cruel young girl.
!!	To her, [she] who is so displeased by
!!	The wound in my heart, [caused by]
!!	The strike of her beautiful eyes,
!!	As much pleasure will give for certain
!!	The wound in my chest, [caused by]
!!	The strike of my hand.
!!@@END:		VERSES
!!@NEW_CRIT_ED:   Torquato Tasso, <i>Aminta. "Princeps."</i>, ed. Matteo Navone, vol. 9 of Commissione Nazionale per l'Edizione delle opere del Tasso. Studi e Testi (Alessandria: Edizioni dell'Orso, 2014).
!!@ATTRIBUTION_ABOUT:	
!!@DATING:	1573
!!@DEDICATEE:	
!!@COMMENTARY:
!!@@END:		VERSEDATA
!!@@BEGIN: SETTING
!!@CATALOGNUM:	Tam2031034b
!!@ACT:		II
!!@SCENE:		3
!!@VERSE:		1034
!!@TITLE:		Vorrò veder ciò che Tirsi avrà fatto
!!@COMPOSER:	Marotta, Erasmo
!!@PRINCEPSTITLE:	Aminta musicale. Il primo libro de madrigali a cinque voci
!!@PRINCEPSLOC:	Venice
!!@NORMLOC:	Venice
!!@NORMPUB:	Angelo Gardano
!!@NORMPUBSHORT:	Gardano
!!@PRINCEPSPUB:	Angelo Gardano
!!@PRINCEPSYEAR:	1600
!!@PRINCEPSRISM:	M 714
!!@OVOICES:	5
!!@EXTANTVOICES:	3
!!@OMENSURATION:	C
!!@OCLEFS:	C1,C4,F4
!!@OTIME:		
!!@OKEYSIG:	-
!!@FINAL:		A
!!@TIMPEDITOR:	Coluzzi, Seth
!!@PARTS:		1 of 1
!!@REPRINTS:	
!!@@END: SETTING
